!!!!SEGMENT: pl-kozmzk--mzk-m-346--012_walczynski-franciszek--cantantibus-organis-maestoso.krn
!!!cenid: 18xx:2807
!!!COM: Walczyński, Franciszek
!!!COM-rismID: pe30021989
!!!CDT: ~1852-1937
!!!CNT: Polish
!!!GTL: Cantantibus organis op. 10
!!!OTL: 12. Maestoso
!!!OMV: 012
!!!PDT: 1898
!!!AGN: Secular
!!!SMS-siglum: PL-KOZmzk
!!!SMS-shelfmark: mzk/m/346
!!!SMS-shelfwork: 001-012 G
!!!SMS-variant:
!!!SMS-altvar:
!!!NIFC-rismSourceID: 1001099615
!!!NIFC-rismChildID: 1001109080
!!!NIFC-islandoraID: pl-kozmzk:7453
!!!URL-pdf-islandora: https://repozytorium.nifc.pl/islandora/object/pl-kozmzk%3A7453/datastream/PDF/view
!!!URL-scan: https://polish.musicsources.pl/pl/lokalizacje/galeria/druki-muzyczne/7581 @EN{Scan on Polish Music Sources Website} @PL{Skany w portalu Dziedzictwo Muzyki Polskiej w otwartym dostępie}
!!!ONB-nifc:
!!!OMD: Maestoso.
!!!AIN: 1 empty 1 organ
!!!key:
**kern	**kern	**dynam
*part2	*part1	*part1
*staff2	*staff1	*
*Iorgan	*Iempty	*
*I"[Organo]	*	*
*clefF4	*clefG2	*
*k[f#]	*k[f#]	*
*e:	*e:	*
*M4/4	*M4/4	*
*met(c)	*met(c)	*
=1	=1	=1
*^	*^	*
!LO:TX:b:i:t=Ped.	!	!	!	!LO:DY:b=2:rj
(4E/	(4EE\	1rg	1r	f
4F#/	4FF#\	.	.	.
4G/	4GG\	.	.	.
8A/L	8AA\L	.	.	.
8c/J)	8C\J)	.	.	.
=2	=2	=2	=2	=2
!	!	!	!	!LO:DY:a
(1B/	2BB\	4r	4r	f
!	!	!	!	!LO:HP:a
.	.	4f#/	4d#X\	<
.	4E\	4g/	[2e\	.
.	4D\	4g#X/	.	.
=3	=3	=3	=3	=3
4A/	4C\	4a/	2e\]	.
4G#X/	4BB\	4b/	.	.
2A/)	2AA\	2cc/	2ryy	[[
=4	=4	=4	=4	=4
!	!	!	!	!LO:DY:b=2:rj
(4A/	(4AA\	1rg	1r	ff
4B/	4BB\	.	.	.
4c/	4C\	.	.	.
8d/L	8D\L	.	.	.
8fn/J)	8Fn\J)	.	.	.
=5	=5	=5	=5	=5
(4e/	[1E\	4r	4r	.
!	!	!	!	!LO:DY:a
!	!	!	!	!LO:HP:a
4d/	.	4g#X/	[2.e\	f <
4c/	.	4a/	.	.
4G#X/	.	4b/	.	.
=6	=6	=6	=6	=6
2A/	4E\]	4cc/	4e\]	.
.	4Fn\	4dd/	4a\	.
2B/)	2E\	2ee^/	2g#X\	[
=7	=7	=7	=7	=7
!LO:TX:b:i:t=senza Ped.	!	!	!	!
(1d/	(2F#X\	(4dd/	2a\	p
.	.	4cc/	.	.
.	4G\	2b/	[2g\	.
.	4Fn\	.	.	.
=8	=8	=8	=8	=8
4c/	4E\	4cc/	1g\_	.
4d/	4D\	4b/	.	.
2e/	4C\	2a/	.	.
.	4C#X\	.	.	.
=9	=9	=9	=9	=9
4d/	4D\	4b/	4g\]	.
4c/	4D#X\	4a/	4f#\	.
2B/	4E\	4g/	[2e\	.
.	4Dn\	4g#X/	.	.
!!LO:LB:g=original
=10	=10	=10	=10	=10
4A/	4C\	4a/	1e\]	.
4B/	4BB\	4g/	.	.
4c/)	4AA\)	2f#/	.	.
4c#X/	4AA#X\	.	.	.
=11	=11	=11	=11	=11
(2.B/	(1BB\	2g/	(2.e\	.
.	.	2f#/	.	.
4A/	.	.	4d#X\	.
=12	=12	=12	=12	=12
!	!	!	!	!LO:DY:a
4G/)	4E\)	(4e/)	4e\)	f
4rGG	4rA	4f#/	4r	.
2rGG	2rA	4g/	2r	.
.	.	8a/L	.	.
.	.	8cc/J	.	.
*v	*v	*	*	*
=13	=13	=13	=13
1r	1b/)	4r	.
.	.	(4a\ 4f#\	.
.	.	4g\ 4e\	.
.	.	4f#\ 4d#X\	.
=14	=14	=14	=14
*^	*	*	*
1rGG	1rA	(4b/	4g\ 4e\)	.
.	.	4cc#X/	4r	.
.	.	4dd#X/	2r	.
.	.	8ee/L	.	.
.	.	8gg/J	.	.
*v	*v	*	*	*
=15	=15	=15	=15
*	*	*^	*
1r;	2ryy	4r	1ff#/;)	pp
.	.	4ee\ 4cc\	.	.
.	2dd#X;/	4b;\	.	.
.	.	4a;\	.	.
*	*	*v	*v	*
=16	=16	=16	=16
*^	*	*	*
!LO:TX:b:i:t=Ped.	!	!	!	!
4E^/	4EE\	[1ee/	[>1b\ [1g\ [1e\	ff
4F#^/	4FF#\	.	.	.
4G^/	4GG\	.	.	.
8A/L	8AA\L	.	.	.
8c/J	8C\J	.	.	.
*v	*v	*	*	*
=17	=17	=17	=17
4B\ 4BB^\	1ee/_	1b\] 1g\] 1e\]	.
4A\ 4AA^\	.	.	.
4G/ 4GG^/	.	.	.
4F#/ 4FF#^/	.	.	.
=18	=18	=18	=18
4E/ 4EE^/	1ee/_	1b\ 1g\ 1e\	.
4C^/	.	.	.
4BB^/	.	.	.
8GG^/L	.	.	.
8FF#^/J	.	.	.
=19	=19	=19	=19
(2EE/	1ee/_	2b\ 2g\	<
!	!LO:TX:b:i:t=rall.	!	!
4CC/	.	(4cc\ (4g\	.
8AA/L	.	4cc\ 4a\))	.
8FF#/J	.	.	[
=20	=20	=20	=20
1E/ 1EE/;<)	1ee/;]	1b\ 1g#X\ 1e\	> ]
*	*v	*v	*
==	==	==
*-	*-	*-
!!!system-decoration: {(s1,s2)}
!!!EED: Andrzej Borzym
!!!EEV: 2021-08-09
!!!RDF**kern: > = above
!!!RDF**kern: < = below
!!!ENC: Anastazja Marusiak
!!!END: 2021-07-27
!!!YEC: Copyright 2022 Narodowy Instytut Fryderyka Chopina (https://polishscores.org)
!!!YEM: License CC-BY-4.0 (https://creativecommons.org/licenses/by/4.0)
